cssgg/lastpass.svg

<svg
  width="24"
  height="24"
  viewBox="0 0 24 24"
  fill="none"
  xmlns="http://www.w3.org/2000/svg"
>
  <path
    d="M21 6C20.4477 6 20 6.44771 20 7V17C20 17.5523 20.4477 18 21 18C21.5523 18 22 17.5523 22 17V7C22 6.44772 21.5523 6 21 6Z"
    fill="currentColor"
  />
  <path
    d="M4 14C5.10457 14 6 13.1046 6 12C6 10.8954 5.10457 10 4 10C2.89543 10 2 10.8954 2 12C2 13.1046 2.89543 14 4 14Z"
    fill="currentColor"
  />
  <path
    d="M12 12C12 13.1046 11.1046 14 10 14C8.89543 14 8 13.1046 8 12C8 10.8954 8.89543 10 10 10C11.1046 10 12 10.8954 12 12Z"
    fill="currentColor"
  />
  <path
    d="M16 14C17.1046 14 18 13.1046 18 12C18 10.8954 17.1046 10 16 10C14.8954 10 14 10.8954 14 12C14 13.1046 14.8954 14 16 14Z"
    fill="currentColor"
  />
</svg>

<svg viewBox="0 0 24 24" xmlns="http://www.w3.org/2000/svg"><g><path d="M21 6c-.56 0-1 .44-1 1v10c0 .55.44 1 1 1 .55 0 1-.45 1-1V7c0-.56-.45-1-1-1Z"/><path d="M4 14c1.1 0 2-.9 2-2 0-1.11-.9-2-2-2 -1.11 0-2 .89-2 2 0 1.1.89 2 2 2Z"/><path d="M12 12c0 1.1-.9 2-2 2 -1.11 0-2-.9-2-2 0-1.11.89-2 2-2 1.1 0 2 .89 2 2Z"/><path d="M16 14c1.1 0 2-.9 2-2 0-1.11-.9-2-2-2 -1.11 0-2 .89-2 2 0 1.1.89 2 2 2Z"/></g></svg>
